X: 277
T: Give me Your Hand
T:Tabhair dom do Lamh
T:Da Mihi Manum
C:Ruairi Dall O’Cathain, c. 1570-c.1650 Irish Harper
R:Waltz
M:3/4
L:1/8
K:G
D2|"G"E2G2G2|G4D2|E2G2G2|G4D2|E2G2G2|G2A2B2|"(Em)"B2e2d2|B4AG|
"D"A2A2ed|"G"B2B2dB|"D"A2AB AG|"C"E4D2|
"G"E2G2G2|G4D2|E2G2G2|G4D2|E2G2G2|G2A2B2|D3B AB|G4D2|
"G"E2G2G2|G2A2B2|"Em"B2e2d2|B4AG|"D"A2A2ed|"G"B2B2dB|"D"A2ABcd|"C"e4||
dB|"G"d2d2e2|g4ed|"C"e2e2g2|"D"a4ge|"G"g2g2de|g2g2de|g2g2a2|b6|
"G"b2b2b2|b4ag|"D"a2ag ab|a4gf|"C"e2e2ge|"G"d2d2gd|B2Bd cB|"D"A4BA|
"G"G2B2d2|"F"=f4ed|"C"e2e2g2|e4dB|"G"d2d2ed|B2B2dB|"D7"A2Ac BA|"G"G6|]


